X: 3377
T: Bencroy
R: reel
M: 4/4
K: Adorian
|:gf|eA~A2 edBd|eA~A2 GEDE|~G3A BABd|eBdB GABd|
eA~A2 edBd|eA~A2 GEDE|~G3A BABd|eBdB A2:|
|:Bd|ea~a2 bgag|egde gedB|A2Bd eABd|(3efg fa gedg|
ea~a2 bgab|gedB GABd|eA~A2 GEDE|GABG A2:|

